app/static/pic/book.svg

<?xml version="1.0" encoding="iso-8859-1"?>
<!-- Generator: Adobe Illustrator 16.0.0, SVG Export Plug-In . SVG Version: 6.00 Build 0)  -->
<!DOCTYPE svg PUBLIC "-//W3C//DTD SVG 1.1//EN" "http://www.w3.org/Graphics/SVG/1.1/DTD/svg11.dtd">
<svg version="1.1" id="Capa_1" xmlns="http://www.w3.org/2000/svg" xmlns:xlink="http://www.w3.org/1999/xlink" x="0px" y="0px"
	 width="512px" height="512px" viewBox="0 0 512 512" style="enable-background:new 0 0 512 512;" xml:space="preserve">
<g>
	<path d="M464,64v416H80c-17.672,0-32-14.312-32-32s14.328-32,32-32h352V0H80C44.656,0,16,28.656,16,64v384
		c0,35.344,28.656,64,64,64h416V64H464z M80,128V96V32h320v352H80V128z M336,96H144V64h192V96z M272,160H144v-32h128V160z M208,224
		h-64v-32h64V224z"/>
</g>
<g>
</g>
<g>
</g>
<g>
</g>
<g>
</g>
<g>
</g>
<g>
</g>
<g>
</g>
<g>
</g>
<g>
</g>
<g>
</g>
<g>
</g>
<g>
</g>
<g>
</g>
<g>
</g>
<g>
</g>
</svg>

<svg width="512" height="512" xmlns="http://www.w3.org/2000/svg">

 <g>
  <title>Book</title>
  <rect fill="none" id="canvas_background" height="512" width="512" y="-1" x="-1"/>
 </g>
 <g>
  <title>Layer 1</title>
  <g id="svg_1">
   <path fill="#aad4ff" id="svg_2" d="m464,64l0,416l-384,0c-17.672,0 -32,-14.312 -32,-32s14.328,-32 32,-32l352,0l0,-416l-352,0c-35.344,0 -64,28.656 -64,64l0,384c0,35.344 28.656,64 64,64l416,0l0,-448l-32,0zm-384,64l0,-32l0,-64l320,0l0,352l-320,0l0,-256zm256,-32l-192,0l0,-32l192,0l0,32zm-64,64l-128,0l0,-32l128,0l0,32zm-64,64l-64,0l0,-32l64,0l0,32z"/>
   <line stroke="null" stroke-linecap="null" stroke-linejoin="null" id="svg_19" y2="425" x2="431.999997" y1="430" x1="99" fill-opacity="null" stroke-opacity="null" stroke-width="null" fill="#ffffaa"/>
   <line stroke-linecap="null" stroke-linejoin="null" id="svg_20" y2="427" x2="406" y1="430" x1="95" stroke-opacity="null" stroke-width="null" stroke="null" fill="#ffffaa"/>
   <line stroke-linecap="null" stroke-linejoin="null" id="svg_21" y2="275" x2="304" y1="276" x1="137" fill-opacity="null" stroke-opacity="null" stroke-width="null" stroke="null" fill="#ffffaa"/>
  </g>
  <g id="svg_3"/>
  <g id="svg_4"/>
  <g id="svg_5"/>
  <g id="svg_6"/>
  <g id="svg_7"/>
  <g id="svg_8"/>
  <g id="svg_9"/>
  <g id="svg_10"/>
  <g id="svg_11"/>
  <g id="svg_12"/>
  <g id="svg_13"/>
  <g id="svg_14"/>
  <g id="svg_15"/>
  <g id="svg_16"/>
  <g id="svg_17"/>
 </g>
</svg>
